X:1
T:[ID 1-29a]
T:[ID 1-29a]
T:Bezeichnung standardisiert: Polonaise Polonoise 13.
T:Urheber unbekannt Datum in der hier transkribierten schriftlichen Quelle: 1775
C:Urheber unbekannt
C:Datum in der hier transkribierten schriftlichen Quelle: 1775
L:1/8
M:3/4
K:D
V:1 treble 
V:1
 f a2 g fe | d f2 e dc | AFAA/F/AA/F/ | df f/e/d/c/B/A/G/F/ | EgDfA,e | d/G/F/E/ F2 F2 :: %6
 c e2 d cB | A c2 B AE | EE/C/EE/C/EE/C/ | A c2 B AG/F/ | EgDfA,e | d/G/F/E/ F2 F2 :| %12

